X: 55
T: Ghost Dance Song (c)
N: Derived from pawnee55.krn
O: Oklahoma, U.S.A.
N: from Pawnee Music by Frances Densmore, 1926
Z: transcribed to **kern format by David Huron, August 2000
C: Skidi and Chaui Bands, 1919
L: 1/8
M: 2/4
Q: 1/4=88
K: G clef=bass
%%linebreak <none>
B, B, [I:setbarnb 1]| 
B,2B, A, | 
G, z B, B,[M:3/4] | 
B,2B, A, G, z[M:2/4] | 
B, G,G,2[M:3/4] | 
E, E, E, E, E, z[M:2/4] | 
B, G,G,2 | 
E, E, E, E, | 
E, z E, E, | 
E,2E, E, | 
E, z E, E, | 
E,2E, E, | 
E, z |]  



